X: 50
T: Kesh Jig
T: Kincora Jig
O: Trad
R: jig
Z: 1997 by John Chambers <jc:trillian.mit.edu>
B: George Petrie "Tear the Callies" 1850
M: 6/8
L: 1/8
K: G
D \
| "G"G2G GAB | "D7"A2A ABd | "G"edd gdd | "D7"edB dBA \
| "G"G2G GAB | "D7"A2A ABd | "G"edd gdB | "D7"AGF "G"G2 :|
|: A \
| "G"B2d dBd | "C"ege "G"dBG | "G"B2d dBG | "Am"ABA "D7"AGA \
| "G"B2d dBd | "C"ege "G"dBd | "C"gfg "D7"aga | bgf "G"g2 :|

%%sep 1 1 500

